icons/segment-logo.svg

<?xml version="1.0" encoding="UTF-8"?>
<svg width="512px" height="105px" viewBox="0 0 512 105" version="1.1" xmlns="http://www.w3.org/2000/svg" xmlns:xlink="http://www.w3.org/1999/xlink" preserveAspectRatio="xMidYMid">
		<g>
				<path d="M92.3839333,56.1387743 L92.451784,56.1440918 L99.5286793,56.8838992 C100.025516,56.9374341 100.481727,57.179865 100.804158,57.5589765 L100.856642,57.6234183 L100.789466,57.6568625 C101.120159,58.0743376 101.266045,58.6085789 101.192814,59.136189 C99.6465987,71.4286403 93.8203989,82.7837907 84.7365669,91.2085425 C75.3110857,99.950437 62.9306994,104.807467 50.0751757,104.807467 C43.8314287,104.817528 37.6408001,103.668016 31.8182208,101.418072 L31.5009924,101.294257 C31.0244134,101.118142 30.6415069,100.755723 30.4387896,100.292528 L30.4082917,100.218567 C30.2097892,99.7573003 30.1987612,99.2381713 30.3752079,98.7707186 L33.1685864,91.9555577 C33.5470894,90.9920957 34.6197882,90.5067901 35.588546,90.8483704 L35.6529671,90.8723712 C49.93102,96.3854647 66.1024148,93.2803493 77.3235003,82.8711491 C84.4658424,76.3083133 89.0713311,67.4421565 90.3338473,57.8249481 C90.4675988,56.8318778 91.3291359,56.1094519 92.31643,56.1358112 L92.3839333,56.1387743 L92.3839333,56.1387743 Z M259.520831,27.2151992 C265.555144,27.2151992 270.274205,29.0562688 273.287964,32.5920341 L273.388905,32.7118589 L273.388905,29.7197616 C273.429329,28.8846065 274.076015,28.2096268 274.901535,28.1281048 L274.968852,28.1228039 L283.020529,28.1228039 C283.848947,28.1800717 284.507895,28.8321206 284.57953,29.6528544 L284.584042,29.7197616 L284.584042,74.4161246 C284.844388,80.7186151 282.907222,86.9158718 279.104105,91.9483499 C274.767034,97.2264695 268.177962,99.8991175 259.520831,99.8991175 C247.485554,99.8991175 237.987995,92.2845212 236.424769,81.4085446 C236.347189,80.623497 236.825451,79.8934079 237.568829,79.6472337 L237.635101,79.6267792 L245.50197,77.7778372 C245.542911,77.7686113 245.584139,77.7608269 245.625656,77.7547723 C246.489149,77.6282036 247.29152,78.2255851 247.418089,79.0890782 C248.136561,85.1897506 253.380083,89.7410367 259.520831,89.5948627 C268.823515,89.5948627 273.200083,84.8665495 273.286684,74.9858244 L273.287996,74.6848309 L273.287996,70.7684068 C269.800868,74.679353 264.75801,76.8405364 259.520831,76.6684144 C246.14058,76.6684144 236.44178,66.2802609 236.44178,51.9921171 C236.319247,45.5636345 238.582781,39.3173648 242.79559,34.4598918 C247.074421,29.758972 253.165003,27.1209213 259.520831,27.2151992 Z M17.1980521,81.5765386 L17.2978119,81.5757578 L17.3979447,81.5766302 C20.6097234,81.613439 23.1957091,84.2104646 23.2306178,87.4104645 L23.2308761,87.5106586 C23.2308761,87.5438144 23.2304873,87.5772585 23.2299107,87.6104143 C23.1739782,90.8870751 20.4727873,93.4983128 17.1961266,93.4426687 C13.9194658,93.3867363 11.3085164,90.6855453 11.3638722,87.4088846 C11.4186632,84.1990944 14.0118446,81.6278444 17.1980521,81.5765386 Z M398.897193,26.5932808 L399.309729,26.5963228 C413.693601,26.7949643 422.605989,36.8071659 422.605989,52.8325453 C422.605989,53.6804696 422.559859,54.5278172 422.470483,55.3708402 C422.397604,56.146158 421.763341,56.7440674 420.991608,56.7809255 L420.925133,56.7827019 L386.734266,56.7827019 C386.944734,63.9636776 392.881068,69.6454334 400.065792,69.5410646 C405.633088,69.8910748 410.707372,66.3503207 412.301734,61.0021414 C412.593688,60.2343602 413.421382,59.8213702 414.204622,60.0415581 L414.268019,60.0608042 L421.092354,62.4644576 C421.469533,62.5857519 421.777757,62.8531295 421.952126,63.2045755 L421.983236,63.2714416 C422.170639,63.6416336 422.202353,64.0717945 422.06973,64.4647631 C418.898303,73.850169 409.966411,80.0601115 400.065792,79.7614207 C393.573016,79.8260025 387.325305,77.2897258 382.718086,72.7182579 C377.68705,67.426011 375.002869,60.3303755 375.270999,53.0343634 C375.270999,36.6427793 387.051515,26.7916564 398.555392,26.5962731 L398.897193,26.5932808 Z M205.428106,26.5933111 L205.444828,26.5933111 C220.086154,26.5933111 229.180077,36.6452933 229.180077,52.8325453 C229.178924,53.6804696 229.133947,54.5278172 229.045435,55.3708402 C228.97755,56.1504035 228.339224,56.7525572 227.563854,56.7816154 L227.498932,56.7827019 L193.308642,56.7827019 C193.519398,63.9835711 199.486294,69.6733996 206.688893,69.5413529 C212.260514,69.8974177 217.337968,66.354357 218.926277,61.0021414 C219.210931,60.2281842 220.044993,59.8122984 220.829372,60.0408547 L220.89285,60.0608042 L227.717472,62.4644576 C228.116496,62.5933328 228.440846,62.8871223 228.608355,63.2714416 C228.76808,63.6531661 228.76808,64.0830386 228.608355,64.4647631 C225.440964,73.8441145 216.517145,80.0526154 206.621716,79.7614207 C200.118849,79.8349402 193.857876,77.2980868 189.240566,72.7182579 C184.217602,67.4219747 181.534287,60.3292222 181.794055,53.0343634 C181.794055,36.4772077 193.812899,26.5933111 205.428106,26.5933111 Z M153.655136,26.5763008 C160.227487,26.5763008 165.539339,28.1732584 169.472773,31.316431 C172.132447,33.4360975 174.103633,36.2964364 175.137518,39.5364816 L175.14069,39.5494556 C175.275731,40.108036 174.947434,40.6706665 174.402728,40.8325923 L174.347545,40.8474342 L166.194959,43.5370926 C165.833128,43.6803835 165.430357,43.6803835 165.068814,43.5370926 C164.760032,43.3929369 164.527653,43.1236539 164.429916,42.7975735 L164.386525,42.637113 C163.643905,39.982637 161.216332,35.7206782 153.655136,35.7206782 C148.276108,35.7206782 145.048748,38.8136845 145.048748,41.8057818 L145.049976,41.9242613 C145.090433,43.86984 146.148259,46.312005 150.787439,47.2404837 L150.932034,47.268709 L159.908326,48.9495654 C169.826393,50.9467081 175.54343,56.3372838 175.656779,63.849836 L175.658497,64.0781373 L175.624981,63.9440421 L175.622866,64.171858 C175.478525,71.7025523 168.19442,79.6267792 154.781281,79.6267792 C139.064554,79.6267792 132.895552,70.7346744 131.752396,65.4902873 C131.677793,64.9416205 132.012528,64.4233248 132.536023,64.2621142 L132.592824,64.246223 L140.997683,61.6240294 C141.147893,61.5995229 141.301275,61.5995229 141.451485,61.6240294 C141.66522,61.6201853 141.876449,61.6655463 142.069176,61.7560627 L142.14055,61.792115 C142.449331,61.9400189 142.677098,62.2170863 142.762438,62.5483562 C143.821694,67.5915019 148.377017,70.6003212 154.932645,70.6003212 C161.034471,70.6003212 163.808028,67.4064059 163.808028,64.5152176 C163.808028,61.6558007 161.390921,59.5360956 157.223863,58.6606521 L157.084314,58.6319321 L147.65422,56.7997122 C138.862736,55.135578 133.383086,49.6723624 133.383086,42.562023 C133.383086,33.9051804 142.678539,26.5763008 153.655136,26.5763008 Z M492.668579,12.574162 L500.014757,12.574162 C500.881098,12.6261987 501.560834,13.3291575 501.593477,14.1901549 L501.594705,14.2550184 L501.594705,28.0556273 L510.434337,28.0556273 C511.294514,28.1160646 511.965655,28.8159216 511.998674,29.6704535 L512,29.7364837 L512,37.0653993 L511.999317,37.1291991 C511.974882,37.950917 511.321441,38.6183014 510.499563,38.6603121 L510.434337,38.6623209 L501.594705,38.6623209 L501.594705,63.1872546 C501.594705,67.2550423 503.206366,68.9361869 507.358052,68.9361869 C508.198641,68.9215792 509.039229,68.8577662 509.871718,68.7451531 L510.183506,68.7006364 C510.641921,68.6230806 511.108986,68.7525325 511.460726,69.0538181 C511.778208,69.348235 511.967995,69.7529805 511.996501,70.183205 L512,70.2641499 L512,77.1726713 C512.005635,77.8767281 511.547219,78.500346 510.87257,78.7024524 C508.936621,79.2443527 506.937363,79.5164 504.927783,79.5115936 L504.65369,79.5091481 C495.882474,79.5091481 490.408899,73.92407 490.300305,64.890912 L490.298658,64.6161267 L490.298658,38.76323 L482.649753,38.76323 C481.816001,38.7141032 481.146252,38.0598085 481.074311,37.233628 L481.069788,37.1662723 L481.069788,29.8036603 C481.066992,28.935069 481.728274,28.2121942 482.585129,28.1279195 L482.649753,28.1228039 L484.70596,28.1225477 L484.924891,28.1186415 C487.325789,28.0496961 491.011726,27.0768684 491.087446,21.7189778 L491.088632,21.5501655 L491.088632,14.2550184 C491.085819,13.3864271 491.7471,12.6635523 492.603955,12.5792776 L492.668579,12.574162 Z M349.897347,26.58583 L350.089868,26.5933111 L350.072569,26.5933111 C358.72676,26.5933111 367.462896,32.6228784 367.636754,45.791495 L367.639392,46.1927303 L367.639392,77.3240349 C367.600091,78.15919 366.951248,78.8338963 366.126678,78.9156701 L366.059445,78.9209925 L358.006903,78.9209925 C357.173152,78.871585 356.506136,78.2175563 356.431686,77.39139 L356.426956,77.3240349 L356.426956,47.2015324 L356.425478,46.9695299 C356.376462,43.1314466 355.072007,36.9644542 347.166389,36.9644542 C341.323669,36.9644542 337.162265,41.5116375 337.079621,48.1265938 L337.078368,48.3276773 L337.078368,77.3240349 C337.039067,78.15919 336.392957,78.8338963 335.56587,78.9156701 L335.498421,78.9209925 L327.347853,78.9209925 C326.511294,78.871585 325.844205,78.2175563 325.772414,77.39139 L325.767906,77.3240349 L325.767906,47.2015324 L325.766428,46.9695299 C325.717411,43.1314466 324.412899,36.9644542 316.504456,36.9644542 C310.430539,36.9644542 306.317686,41.4785763 306.236036,48.2235139 L306.234798,48.4285864 L306.234798,77.3240349 C306.19269,78.15919 305.546506,78.8338963 304.722079,78.9156701 L304.654851,78.9209925 L296.602309,78.9209925 C295.774172,78.8637248 295.115504,78.2114025 295.044151,77.3909205 L295.039661,77.3240349 L295.039661,29.6188526 C295.078962,28.7895927 295.716872,28.1169548 296.535543,28.0278338 L296.602309,28.0218949 L304.352124,28.0218949 C305.185875,28.0710217 305.855625,28.7253164 305.927557,29.5514968 L305.932071,29.6188526 L305.932071,32.4933187 C309.417758,28.6714608 314.373833,26.5241164 319.546143,26.5933111 C325.537257,26.4177294 331.127618,29.5851201 334.05398,34.8127851 C337.539061,29.4878323 343.547529,26.3726092 349.897347,26.58583 Z M470.462823,32.5267628 C473.547557,36.5906503 475.137979,41.5889727 474.974214,46.6834891 L474.96625,46.8988053 L474.96625,77.3240349 C474.926948,78.1532948 474.289039,78.8259326 473.470368,78.9150536 L473.403601,78.9209925 L465.253034,78.9209925 C464.416475,78.871585 463.749385,78.2175563 463.674933,77.39139 L463.670203,77.3240349 L463.670203,48.5294954 C463.670203,40.9987977 460.123971,37.1662723 453.400546,37.1662723 C450.430937,37.0702646 447.591068,38.3933263 445.75164,40.7298031 C443.973035,43.2945006 443.054151,46.3553403 443.125546,49.4722324 L443.130888,49.6556403 L443.130888,77.3240349 C443.08878,78.15919 442.442597,78.8338963 441.618169,78.9156701 L441.550941,78.9209925 L433.414789,78.9209925 C432.581038,78.871585 431.911288,78.2175563 431.839356,77.39139 L431.834842,77.3240349 L431.834842,29.5851201 C431.874143,28.749965 432.522986,28.0752587 433.347556,27.9934849 L433.414789,27.9881624 L441.366422,27.9881624 C442.194559,28.0454302 442.853227,28.6977525 442.92458,29.5182345 L442.92907,29.5851201 L442.92907,32.9471211 C446.339796,28.81504 451.457326,26.4736619 456.814155,26.5933111 C462.032594,26.370158 467.066513,28.5581544 470.462823,32.5267628 Z M1.94992349,58.1781298 L59.8250074,58.1781298 C60.8884506,58.1871635 61.7476166,59.0387367 61.7743604,60.0940803 L61.7750022,60.1617132 L61.7750022,67.4066942 C61.7838937,68.4701373 60.946793,69.3436774 59.8923154,69.3882746 L59.8247191,69.3899893 L1.94992349,69.3899893 C0.886198029,69.3809556 0.02730253,68.5291059 0,67.4740215 L0,67.4064059 L0,60.161461 L0,60.0938096 C0.026732906,59.0616731 0.849518683,58.2242846 1.88086458,58.1799069 L1.94992349,58.1781298 Z M260.916259,37.2671814 C252.982213,37.2671814 247.939356,42.9152046 247.939356,51.9921171 C247.939356,61.069318 252.914749,66.7003309 260.916259,66.7003309 C268.547577,66.7003309 273.691344,60.7836012 273.691344,51.9921171 C273.691344,43.183911 268.547577,37.2671814 260.916259,37.2671814 Z M193.666399,47.0883561 L193.644813,47.268709 L217.564581,47.268709 C216.982307,40.8785372 212.478752,36.8936366 205.734084,36.8145776 L205.529015,36.813379 C199.585916,36.7167386 194.524905,41.0634989 193.69039,46.9107116 L193.666399,47.0883561 L193.666399,47.0883561 Z M387.15948,47.0883561 L387.137902,47.268709 L411.059112,47.268709 C410.476838,40.8785372 405.972434,36.8936366 399.22719,36.8145776 L399.022104,36.813379 C393.07957,36.7167386 388.01774,41.0634989 387.183463,46.9107116 L387.15948,47.0883561 L387.15948,47.0883561 Z M67.0697,2.89179525 C67.5707855,3.07256659 67.9770165,3.44852485 68.195845,3.9340415 C68.3967981,4.42417113 68.3967981,4.97369295 68.195845,5.46353427 L65.6745605,12.1875362 C65.3251269,13.1845176 64.2350209,13.7106862 63.2371746,13.3641357 C50.0278926,8.75461062 35.3707101,11.3736327 24.5754607,20.272657 C17.8477107,25.9039582 13.0706766,33.5168247 10.9262153,42.0240336 C10.7042154,42.883202 9.93067551,43.4840433 9.04354087,43.4866381 L8.60646056,43.4866381 L1.68092882,41.8225038 C1.16456283,41.7011247 0.721139667,41.3727378 0.45387486,40.9146108 L0.420142408,40.9146108 C0.139903582,40.456772 0.0609062172,39.9035022 0.201890565,39.385118 C2.95209444,28.4950141 9.10581616,18.7668058 17.7675601,11.6158144 C31.5407794,0.276809487 50.2418198,-3.03243048 67.0697,2.89179525 Z M41.4353435,31.9386073 L99.3101391,31.9386073 C100.347497,31.9470686 101.195302,32.7584353 101.257113,33.7859136 L101.260134,33.8547258 L101.260134,41.0997068 C101.269025,42.1634323 100.432478,43.0369782 99.3777523,43.0815755 L99.3101391,43.0832903 L41.4353435,43.0832903 C40.3785897,43.0652309 39.5295183,42.2167179 39.5027127,41.1683551 L39.50206,41.0997068 L39.50206,33.9219024 C39.4929011,32.8651486 40.3192918,31.9948119 41.3667255,31.9409556 L41.4353435,31.9386073 Z M81.6117706,9.83395712 L81.7115222,9.8331765 L81.8116462,9.83404906 C85.023425,9.87085782 87.6094106,12.4678834 87.6443193,15.6676038 L87.6445776,15.7677891 C87.6445776,15.8012332 87.6441889,15.8346773 87.6436123,15.8678332 C87.5879681,19.1444939 84.8864889,21.7554433 81.6098281,21.6997992 C78.3331674,21.6441551 75.722218,18.9426759 75.7778621,15.6663034 C75.8323706,12.4562308 78.425823,9.88525168 81.6117706,9.83395712 Z" fill="#4FB58B"></path>
		</g>
</svg>

<svg xmlns="http://www.w3.org/2000/svg" viewBox="0 0 512 104.808">
  <path fill="#4fb58b" d="m92.384 56.139.068.005 7.077.74c.497.053.953.296 1.275.675l.053.064-.068.034c.331.417.477.952.404 1.48a52.715 52.715 0 0 1-16.456 32.072 50.97 50.97 0 0 1-34.662 13.598 50.425 50.425 0 0 1-18.257-3.389l-.317-.124a1.865 1.865 0 0 1-1.062-1.001l-.03-.074a1.935 1.935 0 0 1-.034-1.448l2.794-6.815a1.917 1.917 0 0 1 2.42-1.108l.064.024a40.056 40.056 0 0 0 41.67-8 41.317 41.317 0 0 0 13.01-25.047 1.95 1.95 0 0 1 1.983-1.69l.068.004zM259.52 27.215c6.034 0 10.753 1.841 13.767 5.377l.1.12V29.72a1.68 1.68 0 0 1 1.514-1.592l.067-.005h8.052c.828.057 1.487.71 1.559 1.53l.005.067v44.696a27.216 27.216 0 0 1-5.48 17.532c-4.337 5.278-10.927 7.951-19.584 7.951-12.035 0-21.533-7.614-23.096-18.49a1.681 1.681 0 0 1 1.144-1.762l.067-.02 7.866-1.85a1.58 1.58 0 0 1 1.916 1.311 11.901 11.901 0 0 0 12.103 10.507c9.303 0 13.68-4.728 13.766-14.61l.001-.3v-3.917a17.667 17.667 0 0 1-13.767 5.9c-13.38 0-23.079-10.388-23.079-24.676a26.003 26.003 0 0 1 6.354-17.532 22.171 22.171 0 0 1 16.725-7.245zM17.198 81.577l.1-.001h.1a5.9 5.9 0 0 1 5.833 5.834v.1l-.001.1a5.934 5.934 0 1 1-6.032-6.033zm381.7-54.984.412.003c14.384.199 23.296 10.211 23.296 26.237 0 .847-.046 1.695-.136 2.538a1.56 1.56 0 0 1-1.478 1.41l-.067.002h-34.19c.21 7.18 6.146 12.862 13.33 12.758a11.986 11.986 0 0 0 12.237-8.539 1.58 1.58 0 0 1 1.903-.96l.063.019 6.824 2.403c.378.122.686.39.86.74l.031.067c.188.37.22.8.087 1.194a22.511 22.511 0 0 1-22.004 15.296 24.286 24.286 0 0 1-17.348-7.043 27.122 27.122 0 0 1-7.447-19.684c0-16.391 11.78-26.242 23.284-26.438zm-193.47 0h.017c14.641 0 23.735 10.052 23.735 26.24a24.578 24.578 0 0 1-.135 2.538 1.546 1.546 0 0 1-1.481 1.41l-.065.002h-34.19c.21 7.2 6.177 12.89 13.38 12.758a11.968 11.968 0 0 0 12.237-8.539 1.563 1.563 0 0 1 1.903-.961l.064.02 6.824 2.403c.4.13.724.423.891.807.16.382.16.812 0 1.194a22.508 22.508 0 0 1-21.986 15.296 24.291 24.291 0 0 1-17.381-7.043 27.198 27.198 0 0 1-7.447-19.684c0-16.557 12.019-26.44 23.634-26.44zm-51.773-.017c6.572 0 11.884 1.597 15.818 4.74 2.66 2.12 4.63 4.98 5.665 8.22l.003.013a1.076 1.076 0 0 1-.738 1.284l-.056.014-8.152 2.69a1.529 1.529 0 0 1-1.126 0 1.195 1.195 0 0 1-.64-.74l-.043-.16c-.742-2.654-3.17-6.916-10.731-6.916-5.38 0-8.606 3.093-8.606 6.085v.118c.041 1.946 1.099 4.388 5.738 5.316l.145.029 8.976 1.68c9.918 1.998 15.635 7.388 15.748 14.9l.002.23-.033-.135-.002.228c-.144 7.53-7.429 15.455-20.842 15.455-15.716 0-21.885-8.892-23.029-14.137a1.126 1.126 0 0 1 .784-1.228l.057-.016 8.405-2.622a1.41 1.41 0 0 1 .453 0c.214-.004.425.042.618.132l.072.036c.308.148.536.425.621.756 1.06 5.043 5.615 8.052 12.17 8.052 6.103 0 8.876-3.194 8.876-6.085 0-2.86-2.417-4.979-6.584-5.854l-.14-.03-9.43-1.831c-8.791-1.664-14.27-7.128-14.27-14.238 0-8.657 9.295-15.986 20.271-15.986zM492.67 12.574h7.346a1.682 1.682 0 0 1 1.578 1.616l.001.065v13.8h8.84c.86.061 1.531.76 1.564 1.615l.001.066v7.393a1.582 1.582 0 0 1-1.5 1.531l-.065.002h-8.84v24.525c0 4.068 1.612 5.75 5.764 5.75a21.56 21.56 0 0 0 2.513-.192l.312-.044c.458-.078.925.052 1.277.353.318.294.507.699.536 1.13l.004.08v6.909a1.582 1.582 0 0 1-1.127 1.53 21.854 21.854 0 0 1-5.945.809l-.274-.003c-8.772 0-14.245-5.585-14.354-14.618l-.002-.275V38.763h-7.649a1.681 1.681 0 0 1-1.575-1.53l-.005-.067v-7.362a1.68 1.68 0 0 1 1.515-1.676l.065-.005h2.056l.219-.004c2.4-.07 6.087-1.042 6.163-6.4V14.255a1.68 1.68 0 0 1 1.516-1.676zM349.897 26.586l.193.007h-.017c8.654 0 17.39 6.03 17.564 19.199l.003.4v31.132a1.681 1.681 0 0 1-1.513 1.592l-.067.005h-8.053a1.683 1.683 0 0 1-1.575-1.53l-.005-.067V46.97c-.05-3.839-1.354-10.006-9.26-10.006-5.843 0-10.004 4.548-10.087 11.163v29.197a1.679 1.679 0 0 1-1.513 1.592l-.068.005h-8.15a1.679 1.679 0 0 1-1.576-1.53l-.005-.067V46.97c-.05-3.839-1.354-10.006-9.263-10.006-6.074 0-10.187 4.515-10.268 11.26l-.001.205v28.895a1.683 1.683 0 0 1-1.513 1.592l-.067.005h-8.053a1.68 1.68 0 0 1-1.558-1.53l-.004-.067V29.619a1.68 1.68 0 0 1 1.496-1.591l.067-.006h7.75c.833.05 1.503.703 1.575 1.53l.005.067v2.874a18.1 18.1 0 0 1 13.614-5.9 16.084 16.084 0 0 1 14.508 8.22 18.206 18.206 0 0 1 15.843-8.227zm120.566 5.94a22.231 22.231 0 0 1 4.511 14.157l-.008.216v30.425a1.68 1.68 0 0 1-1.496 1.591l-.066.006h-8.151a1.684 1.684 0 0 1-1.578-1.53l-.005-.067V48.529c0-7.53-3.546-11.363-10.27-11.363a9.352 9.352 0 0 0-7.649 3.564 14.749 14.749 0 0 0-2.626 8.742l.005.184v27.668a1.683 1.683 0 0 1-1.513 1.592l-.067.005h-8.136a1.681 1.681 0 0 1-1.575-1.53l-.005-.067V29.585c.039-.835.688-1.51 1.512-1.592l.068-.005h7.951a1.68 1.68 0 0 1 1.558 1.53l.004.067v3.362a17.498 17.498 0 0 1 13.886-6.354 17.01 17.01 0 0 1 13.648 5.934zM1.95 58.179h57.875a1.967 1.967 0 0 1 1.95 1.916v7.313a1.967 1.967 0 0 1-1.883 1.981l-.067.002H1.95A1.968 1.968 0 0 1 0 67.474v-7.38a1.968 1.968 0 0 1 1.88-1.914zm258.966-20.91c-7.934 0-12.977 5.647-12.977 14.724S252.915 66.7 260.916 66.7c7.632 0 12.775-5.916 12.775-14.708 0-8.808-5.143-14.725-12.775-14.725zm-67.25 9.82-.021.18h23.92c-.583-6.39-5.086-10.374-11.83-10.453l-.206-.002a11.767 11.767 0 0 0-11.839 10.098l-.024.177zm193.493 0-.021.18h23.921c-.582-6.39-5.087-10.374-11.832-10.453l-.205-.002a11.767 11.767 0 0 0-11.839 10.098l-.024.177zM67.07 2.892c.502.18.908.557 1.127 1.042.2.49.2 1.04 0 1.53l-2.521 6.724a1.916 1.916 0 0 1-2.438 1.176 40.04 40.04 0 0 0-38.662 6.909 41.638 41.638 0 0 0-13.649 21.751 1.95 1.95 0 0 1-1.882 1.463h-.438l-6.925-1.664a1.933 1.933 0 0 1-1.227-.908H.42a1.95 1.95 0 0 1-.218-1.53 52.763 52.763 0 0 1 17.566-27.77A50.95 50.95 0 0 1 67.07 2.893zM41.436 31.939H99.31a1.967 1.967 0 0 1 1.947 1.847l.003.069V41.1a1.967 1.967 0 0 1-1.882 1.982l-.068.001H41.435a1.967 1.967 0 0 1-1.932-1.915V33.922a1.967 1.967 0 0 1 1.864-1.981zM81.612 9.834h.2a5.9 5.9 0 0 1 5.832 5.834v.2a5.934 5.934 0 1 1-6.032-6.034z"/>
</svg>
